www/assets/icons/content_cut.svg

<svg xmlns="http://www.w3.org/2000/svg" width="24" height="24" viewBox="0 0 24 24" fill='currentColor'><path d="M9.64 7.64c.23-.5.36-1.05.36-1.64 0-2.21-1.79-4-4-4S2 3.79 2 6s1.79 4 4 4c.59 0 1.14-.13 1.64-.36L10 12l-2.36 2.36C7.14 14.13 6.59 14 6 14c-2.21 0-4 1.79-4 4s1.79 4 4 4 4-1.79 4-4c0-.59-.13-1.14-.36-1.64L12 14l7 7h3v-1zM6 8a2 2 0 1 1-.001-3.999A2 2 0 0 1 6 8m0 12a2 2 0 1 1-.001-3.999A2 2 0 0 1 6 20m6-7.5c-.28 0-.5-.22-.5-.5s.22-.5.5-.5.5.22.5.5-.22.5-.5.5M19 3l-6 6 2 2 7-7V3z"/></svg>

<svg width="24" height="24" viewBox="0 0 24 24" xmlns="http://www.w3.org/2000/svg" fill='currentColor'><path d="M9.64 7.64C9.87 7.14 10 6.59 10 6C10 3.79 8.21 2 6 2C3.79 2 2 3.79 2 6C2 8.21 3.79 10 6 10C6.59 10 7.14 9.87 7.64 9.64L10 12L7.64 14.36C7.14 14.13 6.59 14 6 14C3.79 14 2 15.79 2 18C2 20.21 3.79 22 6 22C8.21 22 10 20.21 10 18C10 17.41 9.87 16.86 9.64 16.36L12 14L19 21H22V20L9.64 7.64ZM6 8C4.9 8 4 7.11 4 6C4 4.89 4.9 4 6 4C7.1 4 8 4.89 8 6C8 7.11 7.1 8 6 8ZM6 20C4.9 20 4 19.11 4 18C4 16.89 4.9 16 6 16C7.1 16 8 16.89 8 18C8 19.11 7.1 20 6 20ZM12 12.5C11.72 12.5 11.5 12.28 11.5 12C11.5 11.72 11.72 11.5 12 11.5C12.28 11.5 12.5 11.72 12.5 12C12.5 12.28 12.28 12.5 12 12.5ZM19 3L13 9L15 11L22 4V3H19Z"/></svg>
